X:1
T:The Green Fields Of Woodford
R:jig
M:6/8
L:1/8
K:G
d|:dBA G2E|EDE G2G|edB dBA|Bee ege|
|dBA G2E|EDE G2B|AGE A2B|1 GED D2d:|2 GED D2A|]
|BGG dGG|edB dBA|BGG deg|edB AGA|
|BGG dGG|edB dBA|GAB AGE|GED D2A|
|BGG dGG|edB dBA|BGG deg|edB AGA|
|BGG deg|age dBA|GAB AGE|GED D2d|